assets/icons/bowtie/1.22/uE68E-toggle-expand.svg

<svg xmlns="http://www.w3.org/2000/svg" viewBox="0 0 448 448" enable-background="new 0 0 448 448"><path d="M320 224h-96v96h-32v-96h-96v-32h96v-96h32v96h96v32zm96-224h-416v416h416v-416zm-384 32h352v352h-352v-352z"/></svg>

<svg xmlns="http://www.w3.org/2000/svg" viewBox="0 0 448 448"><path d="M320 224h-96v96h-32v-96H96v-32h96V96h32v96h96v32zM416 0H0v416h416V0zM32 32h352v352H32V32z"/></svg>
